gnome-dvd-iso/root-image/usr/share/gnome-color-manager/ti1/printer-short.ti1
CTI1   

DESCRIPTOR "Argyll Calibration Target chart information 1"
ORIGINATOR "Argyll targen"
CREATED "Sat Mar 17 18:17:53 2012"
KEYWORD "APPROX_WHITE_POINT"
APPROX_WHITE_POINT "95.106486 100.000000 108.844025"
KEYWORD "COLOR_REP"
COLOR_REP "iRGB"
KEYWORD "WHITE_COLOR_PATCHES"
WHITE_COLOR_PATCHES "4"
KEYWORD "ERROR_OPTIMISED_PATCHES"
ERROR_OPTIMISED_PATCHES "192"

NUMBER_OF_FIELDS 7
BEGIN_DATA_FORMAT
SAMPLE_ID RGB_R RGB_G RGB_B XYZ_X XYZ_Y XYZ_Z 
END_DATA_FORMAT

NUMBER_OF_SETS 196
BEGIN_DATA
1 100.00 100.00 100.00 95.106 100.00 108.84 
2 100.00 100.00 100.00 95.106 100.00 108.84 
3 100.00 100.00 100.00 95.106 100.00 108.84 
4 100.00 100.00 100.00 95.106 100.00 108.84 
5 0.0000 0.0000 0.0000 1.0000 1.0000 1.0000 
6 0.0000 100.00 0.0000 36.405 71.801 12.802 
7 0.0000 0.0000 100.00 18.871 8.1473 95.129 
8 100.00 0.0000 0.0000 41.830 22.052 2.9132 
9 0.0000 100.00 100.00 54.276 78.948 106.93 
10 100.00 100.00 0.0000 77.235 92.853 14.715 
11 100.00 0.0000 100.00 59.701 29.199 97.042 
12 0.0000 53.567 100.00 27.671 25.745 98.062 
13 0.0000 26.198 0.0000 2.9758 4.9509 1.6586 
14 0.0000 0.0000 36.968 3.0123 1.8048 11.599 
15 100.00 0.0000 23.988 42.669 22.388 7.3296 
16 100.00 50.042 100.00 67.293 44.382 99.573 
17 100.00 64.516 0.0000 55.065 48.519 7.3250 
18 70.146 0.0000 0.0000 19.376 10.475 1.8611 
19 100.00 100.00 51.516 81.316 94.485 36.209 
20 0.0000 100.00 32.605 37.957 72.421 20.973 
21 37.656 100.00 100.00 59.055 81.412 107.15 
22 75.434 100.00 0.0000 58.017 82.944 13.815 
23 66.146 0.0000 100.00 35.001 16.464 95.885 
24 0.0000 76.004 28.465 21.236 39.583 13.553 
25 55.697 74.485 0.0000 30.267 43.127 7.5902 
26 50.538 0.0000 75.030 19.290 9.3495 50.648 
27 100.00 26.786 68.523 51.530 29.235 43.818 
28 65.153 100.00 51.884 56.148 81.501 35.361 
29 55.152 50.589 100.00 37.458 29.266 98.227 
30 0.0000 0.0000 68.911 8.7316 4.0921 41.723 
31 0.0000 51.364 0.0000 9.0328 17.063 3.6776 
32 100.00 0.0000 76.348 51.548 25.939 54.098 
33 0.0000 17.771 51.653 6.0453 4.5233 22.931 
34 51.200 100.00 0.0000 45.605 76.544 13.233 
35 35.510 0.0000 0.0000 5.2277 3.1798 1.1981 
36 0.0000 100.00 65.230 43.251 74.538 48.857 
37 29.347 0.0000 100.00 21.731 9.6220 95.263 
38 100.00 51.851 75.173 59.415 42.202 55.084 
39 0.0000 74.951 100.00 37.344 45.088 101.29 
40 49.803 35.883 26.990 14.470 13.383 8.2284 
41 0.0000 52.706 77.461 19.533 22.003 56.702 
42 64.294 0.0000 49.967 19.967 10.338 21.829 
43 0.0000 76.708 0.0000 20.456 39.907 7.4854 
44 77.850 58.092 100.00 52.570 41.114 99.718 
45 33.947 59.502 100.00 33.796 32.277 99.001 
46 100.00 100.00 77.388 87.252 96.859 67.474 
47 49.055 100.00 75.896 54.381 79.960 63.703 
48 73.173 100.00 100.00 74.467 89.358 107.88 
49 100.00 77.272 19.765 62.187 61.834 12.554 
50 74.961 25.075 0.0000 24.122 15.611 2.6025 
51 100.00 48.027 21.633 49.465 36.220 8.8458 
52 17.852 0.0000 17.438 2.5532 1.7477 3.4682 
53 100.00 26.186 100.00 61.675 33.147 97.700 
54 47.420 80.634 62.433 36.770 51.021 41.346 
55 100.00 77.565 100.00 79.648 69.087 103.69 
56 100.00 0.0000 50.132 45.677 23.591 23.176 
57 26.495 34.019 58.657 12.101 11.075 30.757 
58 48.753 22.821 0.0000 10.783 8.2818 1.8903 
59 28.472 100.00 53.729 43.567 74.976 36.479 
60 100.00 28.991 0.0000 44.250 26.891 3.7198 
61 0.0000 63.374 50.307 17.599 27.993 25.657 
62 26.180 100.00 0.0000 38.681 72.974 12.908 
63 72.481 37.889 60.227 30.705 21.881 33.560 
64 25.028 31.697 100.00 23.854 15.021 96.193 
65 100.00 45.884 49.210 51.825 36.126 24.479 
66 76.968 100.00 73.637 67.976 87.042 61.071 
67 100.00 100.00 26.845 78.282 93.271 20.229 
68 20.337 100.00 83.304 49.619 77.247 75.120 
69 26.229 45.799 0.0000 9.5575 14.723 3.1982 
70 54.115 72.610 31.857 30.064 41.355 15.014 
71 78.499 50.940 0.0000 32.519 28.961 4.7372 
72 0.0000 34.074 32.198 5.8773 8.3346 10.085 
73 0.0000 78.472 72.492 30.128 45.402 53.411 
74 0.0000 24.783 100.00 20.642 11.688 95.719 
75 24.947 0.0000 69.673 10.992 5.2354 42.829 
76 100.00 76.033 72.256 69.497 63.632 54.527 
77 76.105 0.0000 73.329 31.924 15.917 48.803 
78 100.00 71.738 47.110 61.946 56.896 26.218 
79 0.0000 40.155 56.673 10.766 12.493 29.040 
80 42.250 65.181 47.202 24.009 32.567 23.594 
81 31.751 0.0000 44.151 7.2846 3.9017 16.579 
82 100.00 23.540 33.364 45.058 25.905 12.014 
83 76.385 30.530 18.711 26.436 18.042 5.6885 
84 82.195 53.911 77.591 46.200 36.383 58.272 
85 83.047 78.323 0.0000 48.203 55.593 9.0521 
86 65.744 78.737 100.00 55.413 57.604 102.75 
87 14.632 63.534 37.625 16.648 27.815 16.297 
88 60.235 67.720 50.357 32.739 38.785 26.987 
89 61.608 54.863 30.424 25.403 27.186 11.829 
90 59.776 9.5487 35.156 16.043 9.0371 11.260 
91 52.095 42.490 70.157 23.944 19.833 45.608 
92 12.137 24.508 39.882 5.6500 5.6955 14.033 
93 47.651 19.903 100.00 27.910 14.532 95.885 
94 0.0000 51.131 21.857 9.6545 17.186 7.3402 
95 76.166 0.0000 27.104 24.151 12.813 7.6553 
96 31.008 69.964 27.895 21.171 34.782 12.384 
97 16.083 92.798 63.346 38.201 63.783 44.795 
98 33.171 60.360 72.379 24.724 29.194 50.409 
99 0.0000 25.648 76.768 12.732 8.7231 53.448 
100 61.306 33.464 85.886 30.540 19.579 69.405 
101 74.920 100.00 28.775 58.892 83.256 20.136 
102 67.549 32.862 34.756 22.792 16.667 12.155 
103 25.367 100.00 24.984 39.451 73.266 17.685 
104 85.084 88.853 56.369 61.366 71.743 37.503 
105 29.610 80.115 100.00 43.231 52.538 102.41 
106 34.763 12.477 20.885 6.1938 4.3553 4.7405 
107 34.878 17.719 52.939 10.339 6.7034 24.306 
108 59.728 45.119 46.483 23.222 21.097 20.847 
109 14.286 37.855 15.039 6.2768 9.8978 4.2851 
110 74.178 25.031 100.00 41.493 22.491 96.706 
111 86.592 87.717 81.828 68.124 73.337 70.947 
112 51.883 48.954 0.0000 17.708 20.359 3.8569 
113 87.927 30.378 52.331 38.382 23.733 25.554 
114 49.051 0.0000 22.757 10.142 5.6261 5.3795 
115 26.159 77.060 65.853 29.919 44.275 44.480 
116 86.022 51.745 58.894 43.657 34.476 33.865 
117 41.934 39.131 47.871 14.969 14.466 21.120 
118 71.642 19.224 67.182 28.657 16.030 40.755 
119 81.688 20.580 33.036 29.670 17.434 11.018 
120 50.184 67.286 92.725 39.391 40.613 85.552 
121 36.207 29.401 79.080 18.406 12.453 57.417 
122 43.822 17.892 36.364 10.481 7.0777 11.867 
123 28.106 73.191 0.0000 21.140 37.383 6.9622 
124 22.297 17.716 0.0000 3.5982 3.7284 1.3898 
125 66.124 70.836 82.649 45.015 46.522 68.340 
126 50.186 100.00 31.484 46.659 76.920 20.820 
127 25.852 76.654 83.141 34.412 45.695 69.558 
128 65.903 84.730 60.991 47.228 60.258 40.944 
129 78.567 66.011 42.581 41.308 42.134 21.028 
130 0.0000 15.041 20.727 2.3304 2.6479 4.5661 
131 4.8100 71.328 85.506 30.228 39.166 72.542 
132 35.290 52.253 33.778 15.179 20.492 12.763 
133 51.206 22.896 67.120 19.012 11.695 40.347 
134 15.125 47.559 57.614 13.823 17.105 30.736 
135 10.319 39.501 84.446 18.198 15.257 66.738 
136 81.713 6.9512 45.282 30.157 15.987 18.560 
137 62.970 87.621 14.743 42.048 61.070 12.215 
138 12.777 85.086 15.177 26.524 50.567 11.099 
139 17.882 89.335 38.893 31.751 57.283 21.979 
140 95.799 26.397 17.815 40.519 24.298 5.9174 
141 11.085 6.0108 82.367 13.177 6.2037 61.768 
142 29.883 28.112 35.239 8.0623 7.8061 11.490 
143 4.3386 85.682 50.672 30.024 52.536 30.061 
144 49.886 67.799 74.135 33.569 38.667 54.258 
145 16.865 43.862 36.790 9.6990 13.744 13.446 
146 59.327 12.821 12.741 14.483 8.7080 3.1658 
147 69.591 66.639 14.728 33.612 38.878 8.3729 
148 36.485 87.947 75.907 41.527 60.059 60.555 
149 65.403 89.049 82.346 55.463 68.142 71.461 
150 90.037 18.822 80.325 45.116 24.039 60.214 
151 16.790 56.924 98.774 29.404 28.548 95.921 
152 10.556 88.801 89.505 42.389 60.872 83.237 
153 15.937 62.420 16.033 14.589 26.222 7.2198 
154 91.892 71.933 59.977 57.241 54.353 38.156 
155 70.461 82.527 37.890 44.606 57.264 20.671 
156 87.949 43.744 10.747 37.406 28.189 5.3821 
157 87.546 62.757 24.550 44.531 41.823 11.187 
158 49.639 88.011 91.841 50.841 64.331 87.833 
159 85.626 10.077 94.631 45.854 22.836 85.505 
160 84.380 10.462 10.741 29.376 16.173 3.4847 
161 27.019 46.295 79.052 20.349 19.289 58.591 
162 10.107 8.7408 8.8913 1.8555 1.8535 1.9055 
163 31.642 80.740 48.743 29.779 47.812 27.501 
164 81.992 41.860 97.275 49.018 31.503 92.347 
165 45.352 63.427 13.401 21.120 30.258 7.0997 
166 18.365 21.171 21.948 4.1643 4.4872 5.2075 
167 49.094 4.6114 56.733 14.563 7.5997 27.956 
168 64.466 51.595 83.124 36.110 29.781 66.368 
169 27.819 55.293 50.431 16.895 22.740 24.789 
170 89.503 67.964 87.345 60.756 52.334 76.708 
171 85.603 48.733 36.627 38.854 30.930 15.131 
172 42.627 43.853 87.887 26.261 20.968 73.441 
173 75.186 71.925 67.086 46.587 48.668 45.990 
174 41.905 85.099 7.4367 31.670 53.261 10.081 
175 32.601 12.141 78.928 15.497 7.9820 56.469 
176 82.970 85.467 98.942 70.012 71.383 102.40 
177 13.996 65.278 60.713 21.136 30.866 36.335 
178 85.207 86.524 16.907 55.351 66.826 13.118 
179 89.000 88.107 37.454 60.987 71.124 22.219 
180 18.230 26.932 73.372 13.116 9.3165 48.580 
181 16.378 15.440 59.391 8.2330 5.1696 30.607 
182 60.766 24.357 49.805 19.879 12.835 22.175 
183 36.386 46.124 16.143 12.216 16.190 5.4338 
184 15.929 6.0013 43.039 4.8369 2.9149 15.705 
185 47.794 91.059 47.658 41.004 63.712 29.081 
186 67.228 15.089 85.440 30.935 16.028 67.924 
187 63.989 43.317 14.088 21.873 19.992 5.2135 
188 20.455 15.509 94.772 18.966 9.5261 84.631 
189 17.127 61.783 82.704 25.672 30.229 66.304 
190 86.561 36.748 80.308 45.264 28.407 61.022 
191 36.881 28.636 12.671 8.1975 8.1838 3.3829 
192 92.326 13.060 59.551 41.208 21.895 32.272 
193 38.075 87.562 25.028 33.002 56.280 14.762 
194 43.560 53.598 59.134 21.825 24.177 33.283 
195 68.475 56.009 59.424 33.689 31.604 34.404 
196 47.378 9.1158 87.863 22.417 10.959 71.668 
END_DATA
CTI1   

DESCRIPTOR "Argyll Calibration Target chart information 1"
ORIGINATOR "Argyll targen"
KEYWORD "DENSITY_EXTREME_VALUES"
DENSITY_EXTREME_VALUES "8"
CREATED "March 17, 2012"

KEYWORD "INDEX"
NUMBER_OF_FIELDS 7
BEGIN_DATA_FORMAT
INDEX RGB_R RGB_G RGB_B XYZ_X XYZ_Y XYZ_Z 
END_DATA_FORMAT

NUMBER_OF_SETS 8
BEGIN_DATA
0 100.00 100.00 100.00 95.106 100.00 108.84 
1 0.0000 47.361 100.00 25.613 21.629 97.376 
2 100.00 0.0000 79.351 52.426 26.290 58.722 
3 0.0000 0.0000 58.997 6.4858 3.1940 29.894 
4 100.00 66.659 0.0000 56.059 50.505 7.6561 
5 0.0000 35.601 0.0000 4.6856 8.3702 2.2286 
6 84.444 0.0000 0.0000 28.843 15.356 2.3047 
7 0.0000 0.0000 0.0000 1.0000 1.0000 1.0000 
END_DATA
CTI1   

DESCRIPTOR "Argyll Calibration Target chart information 1"
ORIGINATOR "Argyll targen"
KEYWORD "DEVICE_COMBINATION_VALUES"
DEVICE_COMBINATION_VALUES "9"
CREATED "March 17, 2012"

KEYWORD "INDEX"
NUMBER_OF_FIELDS 7
BEGIN_DATA_FORMAT
INDEX RGB_R RGB_G RGB_B XYZ_X XYZ_Y XYZ_Z 
END_DATA_FORMAT

NUMBER_OF_SETS 9
BEGIN_DATA
0 100.00 100.00 100.00 95.106 100.00 108.84 
1 0.0000 100.00 100.00 54.276 78.948 106.93 
2 100.00 0.0000 100.00 59.701 29.199 97.042 
3 0.0000 0.0000 100.00 18.871 8.1473 95.129 
4 100.00 100.00 0.0000 77.235 92.853 14.715 
5 0.0000 100.00 0.0000 36.405 71.801 12.802 
6 100.00 0.0000 0.0000 41.830 22.052 2.9132 
7 0.0000 0.0000 0.0000 1.0000 1.0000 1.0000 
8 50.000 50.000 50.000 21.143 22.190 24.083 
END_DATA
