gnome-dvd-iso/root-image/usr/share/gnome-color-manager/ti1/printer-long.ti1
CTI1   

DESCRIPTOR "Argyll Calibration Target chart information 1"
ORIGINATOR "Argyll targen"
CREATED "Sat Mar 17 18:18:00 2012"
KEYWORD "APPROX_WHITE_POINT"
APPROX_WHITE_POINT "95.106486 100.000000 108.844025"
KEYWORD "COLOR_REP"
COLOR_REP "iRGB"
KEYWORD "WHITE_COLOR_PATCHES"
WHITE_COLOR_PATCHES "4"
KEYWORD "ERROR_OPTIMISED_PATCHES"
ERROR_OPTIMISED_PATCHES "584"

NUMBER_OF_FIELDS 7
BEGIN_DATA_FORMAT
SAMPLE_ID RGB_R RGB_G RGB_B XYZ_X XYZ_Y XYZ_Z 
END_DATA_FORMAT

NUMBER_OF_SETS 588
BEGIN_DATA
1 100.00 100.00 100.00 95.106 100.00 108.84 
2 100.00 100.00 100.00 95.106 100.00 108.84 
3 100.00 100.00 100.00 95.106 100.00 108.84 
4 100.00 100.00 100.00 95.106 100.00 108.84 
5 0.0000 0.0000 0.0000 1.0000 1.0000 1.0000 
6 0.0000 100.00 0.0000 36.405 71.801 12.802 
7 0.0000 0.0000 100.00 18.871 8.1473 95.129 
8 100.00 0.0000 0.0000 41.830 22.052 2.9132 
9 0.0000 100.00 100.00 54.276 78.948 106.93 
10 100.00 100.00 0.0000 77.235 92.853 14.715 
11 100.00 0.0000 100.00 59.701 29.199 97.042 
12 0.0000 36.016 100.00 22.647 15.697 96.387 
13 0.0000 32.452 0.0000 4.0438 7.0868 2.0146 
14 0.0000 0.0000 28.660 2.1934 1.4773 7.2856 
15 100.00 0.0000 36.165 43.752 22.821 13.038 
16 100.00 52.557 100.00 68.144 46.083 99.857 
17 100.00 50.383 0.0000 49.534 37.458 5.4813 
18 65.177 0.0000 0.0000 16.611 9.0493 1.7315 
19 100.00 100.00 51.434 81.302 94.479 36.134 
20 0.0000 100.00 33.331 38.028 72.450 21.351 
21 49.693 100.00 100.00 62.900 83.394 107.33 
22 68.009 100.00 0.0000 53.560 80.646 13.606 
23 66.998 0.0000 100.00 35.465 16.703 95.907 
24 0.0000 83.723 0.0000 24.681 48.356 8.8939 
25 0.0000 69.233 51.392 20.536 33.573 27.540 
26 48.596 57.271 0.0000 19.401 25.601 4.7795 
27 70.377 0.0000 70.841 27.733 13.833 45.172 
28 0.0000 0.0000 57.077 6.1021 3.0405 27.873 
29 100.00 30.555 71.509 52.917 30.792 48.030 
30 30.551 100.00 66.212 46.584 76.230 50.216 
31 23.815 35.985 100.00 24.529 16.658 96.474 
32 34.550 100.00 0.0000 40.399 73.860 12.989 
33 31.166 0.0000 0.0000 4.2315 2.6661 1.1514 
34 0.0000 100.00 50.086 40.245 73.336 33.025 
35 33.268 0.0000 100.00 22.565 10.052 95.302 
36 100.00 0.0000 58.733 47.262 24.225 31.525 
37 0.0000 53.884 100.00 27.785 25.973 98.100 
38 42.889 0.0000 55.925 12.168 6.1941 26.996 
39 100.00 52.181 60.811 56.006 41.020 36.567 
40 61.504 60.888 100.00 44.254 38.523 99.655 
41 0.0000 49.589 0.0000 8.4443 15.886 3.4814 
42 100.00 100.00 84.761 89.525 97.768 79.448 
43 0.0000 32.177 41.833 6.6017 8.0254 15.747 
44 84.265 100.00 100.00 81.986 93.235 108.23 
45 51.235 100.00 47.537 49.049 77.923 31.302 
46 100.00 35.892 100.00 63.450 36.695 98.292 
47 100.00 81.683 0.0000 64.233 66.851 10.381 
48 37.937 36.471 27.493 10.827 11.692 8.3019 
49 69.254 31.766 0.0000 21.774 16.035 2.8081 
50 100.00 69.051 100.00 75.088 59.969 102.17 
51 100.00 34.131 0.0000 45.207 28.806 4.0390 
52 0.0000 42.195 54.851 10.945 13.404 27.392 
53 0.0000 100.00 67.411 43.768 74.745 51.583 
54 17.734 83.154 100.00 43.273 55.339 102.95 
55 64.687 0.0000 22.604 17.100 9.2149 5.6545 
56 100.00 100.00 16.671 77.658 93.022 16.942 
57 100.00 64.218 31.375 56.365 48.823 14.833 
58 0.0000 18.013 100.00 19.836 10.077 95.451 
59 47.777 30.639 0.0000 11.629 10.497 2.2734 
60 48.387 100.00 66.547 51.702 78.860 50.870 
61 100.00 37.242 42.871 48.629 31.248 18.748 
62 50.673 56.282 43.075 22.576 26.352 19.321 
63 62.713 30.541 100.00 35.897 20.917 96.697 
64 38.208 100.00 31.646 42.791 74.924 20.719 
65 0.0000 84.207 100.00 42.862 56.122 103.13 
66 100.00 71.034 81.704 69.532 59.347 67.970 
67 32.536 54.199 100.00 31.428 28.020 98.304 
68 0.0000 0.0000 86.047 13.714 6.0849 67.967 
69 0.0000 64.328 17.870 14.630 27.489 7.9110 
70 0.0000 30.469 63.636 10.157 8.9434 36.028 
71 14.818 0.0000 70.407 9.8935 4.6475 43.753 
72 88.909 0.0000 48.710 35.891 18.572 21.507 
73 84.155 65.722 0.0000 42.417 42.820 6.8910 
74 0.0000 81.787 67.448 30.838 48.875 47.317 
75 21.583 0.0000 30.021 3.8725 2.3295 7.9767 
76 83.041 100.00 62.381 69.419 88.105 46.725 
77 100.00 0.0000 80.719 52.840 26.456 60.904 
78 28.721 53.231 0.0000 12.419 19.771 4.0219 
79 0.0000 100.00 17.446 36.864 71.984 15.221 
80 84.091 100.00 45.529 67.113 87.272 30.564 
81 16.491 100.00 100.00 55.224 79.436 106.98 
82 42.579 18.766 55.315 12.997 8.1790 26.730 
83 79.356 0.0000 11.563 25.437 13.573 3.3226 
84 65.474 74.029 100.00 52.609 52.211 101.86 
85 16.380 0.0000 100.00 19.807 8.6300 95.173 
86 100.00 18.143 33.299 44.428 24.655 11.772 
87 0.0000 67.713 80.836 26.778 34.878 64.091 
88 20.344 41.385 69.796 15.405 15.010 44.646 
89 48.151 48.180 79.996 26.842 23.458 60.541 
90 46.467 58.843 54.629 23.905 28.311 29.371 
91 100.00 0.0000 17.699 42.302 22.241 5.3967 
92 16.920 100.00 0.0000 37.398 72.312 12.848 
93 0.0000 82.423 17.467 24.322 46.900 11.045 
94 79.482 27.195 37.860 29.541 18.630 13.989 
95 43.084 67.847 100.00 40.018 41.012 100.36 
96 31.797 16.211 0.0000 5.1634 4.3290 1.4233 
97 60.937 100.00 29.469 51.125 79.244 20.081 
98 100.00 17.223 100.00 60.590 30.977 97.338 
99 100.00 66.747 65.038 62.901 53.308 43.490 
100 60.036 100.00 83.002 61.151 83.204 75.157 
101 81.011 0.0000 23.616 27.173 14.401 6.4723 
102 100.00 35.545 22.461 46.242 29.693 8.0250 
103 41.869 0.0000 86.741 19.922 9.2589 69.473 
104 45.240 84.647 22.313 33.050 53.467 13.260 
105 14.769 41.335 0.0000 6.8214 11.485 2.7173 
106 75.182 0.0000 55.915 27.328 14.011 27.696 
107 61.052 46.189 0.0000 20.902 20.743 3.7628 
108 84.418 100.00 0.0000 64.228 86.146 14.106 
109 70.632 24.432 46.338 24.630 15.364 19.551 
110 47.058 0.0000 0.0000 8.6684 4.9539 1.3593 
111 76.099 89.064 7.6509 50.388 66.859 11.744 
112 34.492 69.736 0.0000 20.709 34.505 6.4294 
113 30.613 73.369 46.427 24.990 39.132 24.191 
114 15.089 100.00 57.772 42.453 74.313 40.434 
115 0.0000 18.818 82.199 13.515 7.6785 61.758 
116 67.342 100.00 100.00 71.060 87.602 107.72 
117 75.109 69.496 77.013 47.920 47.211 59.393 
118 32.879 17.162 100.00 23.360 11.772 95.592 
119 0.0000 18.855 14.278 2.3713 3.2278 3.0434 
120 85.965 24.121 0.0000 31.665 19.303 2.9180 
121 68.008 53.613 17.305 27.423 27.656 7.1261 
122 42.388 80.374 68.803 36.442 50.445 49.070 
123 0.0000 100.00 83.823 48.391 76.594 75.930 
124 0.0000 0.0000 14.243 1.3202 1.1280 2.6863 
125 100.00 85.950 100.00 84.826 79.442 105.42 
126 100.00 100.00 68.786 84.936 95.932 55.275 
127 84.201 0.0000 100.00 46.534 22.410 96.425 
128 100.00 57.005 81.338 63.111 46.689 65.268 
129 64.431 66.374 54.652 34.953 38.887 30.853 
130 81.326 64.611 100.00 57.732 47.890 100.75 
131 41.628 34.142 100.00 28.153 17.949 96.532 
132 0.0000 46.614 29.271 8.7609 14.527 9.7311 
133 0.0000 69.061 100.00 34.263 38.927 100.26 
134 15.556 0.0000 0.0000 1.8536 1.4401 1.0400 
135 68.452 81.137 0.0000 40.472 54.103 9.1714 
136 100.00 25.189 51.697 47.770 27.352 25.180 
137 18.751 100.00 80.236 48.466 76.763 70.073 
138 0.0000 34.703 84.236 16.614 12.836 65.997 
139 73.317 14.384 0.0000 21.925 12.747 2.1653 
140 81.978 46.256 0.0000 33.454 27.245 4.3567 
141 42.941 0.0000 27.301 8.3875 4.6838 6.9975 
142 51.994 100.00 0.0000 45.917 76.705 13.248 
143 61.499 40.713 54.182 24.169 19.667 27.256 
144 31.013 79.314 62.061 31.301 47.035 40.438 
145 100.00 16.452 0.0000 42.648 23.688 3.1859 
146 0.0000 66.712 0.0000 15.254 29.503 5.7512 
147 84.158 86.033 59.204 59.338 67.809 39.806 
148 0.0000 0.0000 71.581 9.4143 4.3652 45.319 
149 76.802 67.715 25.910 39.208 42.453 12.104 
150 34.163 0.0000 42.229 7.5654 4.0771 15.210 
151 68.323 23.849 89.133 33.741 18.727 74.873 
152 100.00 82.574 25.719 65.748 68.343 15.630 
153 49.680 0.0000 100.00 27.490 12.591 95.533 
154 87.729 48.656 62.423 44.702 33.419 37.520 
155 83.949 0.0000 0.0000 28.476 15.167 2.2875 
156 80.341 100.00 81.648 72.593 89.153 73.471 
157 22.958 42.765 52.489 12.428 14.444 25.273 
158 100.00 69.010 15.744 57.579 52.934 10.046 
159 20.144 11.685 46.670 6.1220 3.9342 18.583 
160 20.768 60.284 16.726 14.273 24.707 7.1073 
161 15.112 49.085 100.00 26.964 23.127 97.594 
162 40.904 24.674 81.335 19.643 11.922 60.843 
163 68.109 78.215 71.311 46.878 53.852 52.528 
164 70.062 0.0000 40.139 21.720 11.406 14.457 
165 0.0000 0.0000 42.726 3.7303 2.0919 15.381 
166 53.838 72.357 0.0000 28.336 40.437 7.1727 
167 84.363 100.00 24.754 65.080 86.482 18.801 
168 74.506 27.810 63.400 30.675 18.860 36.584 
169 51.163 65.472 14.125 24.174 33.205 7.6502 
170 18.568 11.080 32.663 4.1507 3.0635 9.3949 
171 51.909 15.745 33.825 12.908 8.0686 10.509 
172 66.736 72.267 33.872 36.157 44.205 16.285 
173 20.100 66.745 100.00 34.505 37.386 99.949 
174 34.576 54.675 76.824 24.056 25.404 56.156 
175 50.688 24.392 24.318 12.579 9.4179 6.5298 
176 16.070 21.433 100.00 21.112 11.286 95.617 
177 100.00 82.879 56.917 70.048 70.368 37.337 
178 37.569 100.00 83.683 53.101 79.028 75.917 
179 84.902 27.195 80.787 42.343 24.199 61.132 
180 12.195 50.822 40.217 11.814 17.949 16.293 
181 32.335 100.00 49.172 43.579 75.073 32.399 
182 15.474 80.926 0.0000 23.784 45.307 8.3526 
183 72.234 55.511 46.795 33.445 31.461 22.557 
184 43.328 68.690 47.385 26.042 36.089 24.315 
185 100.00 84.259 86.367 78.675 75.221 78.451 
186 0.0000 15.752 0.0000 1.7569 2.5135 1.2523 
187 100.00 29.411 86.366 57.142 32.161 71.272 
188 52.087 0.0000 74.667 19.795 9.6211 50.145 
189 21.845 72.723 30.595 21.230 36.902 14.006 
190 21.175 19.811 22.706 4.4110 4.3803 5.4239 
191 0.0000 81.221 34.016 24.811 45.908 17.289 
192 46.469 59.812 78.253 29.934 31.353 59.173 
193 100.00 42.645 80.490 58.158 37.201 62.331 
194 37.690 44.698 48.215 15.279 16.792 21.837 
195 22.162 100.00 17.517 38.511 72.833 15.316 
196 100.00 100.00 34.880 79.018 93.566 24.106 
197 53.024 16.297 0.0000 11.730 7.7263 1.7332 
198 0.0000 83.381 83.775 36.434 52.708 71.869 
199 66.748 29.480 73.503 28.887 18.060 49.623 
200 0.0000 61.043 64.170 19.316 27.065 39.676 
201 60.281 78.575 59.159 40.193 51.044 37.529 
202 15.865 19.725 0.0000 3.0261 3.7396 1.4221 
203 84.563 48.533 100.00 53.908 36.759 98.807 
204 6.3439 31.184 32.690 5.5797 7.3446 10.160 
205 0.0000 15.611 62.588 7.9925 4.9882 34.155 
206 77.768 15.225 100.00 42.721 21.502 96.451 
207 32.736 19.442 71.134 13.983 8.3838 45.242 
208 66.293 46.650 78.032 33.940 26.490 57.683 
209 41.714 28.393 68.205 16.806 11.719 41.854 
210 83.865 41.226 15.145 33.785 25.305 5.8331 
211 68.509 46.600 100.00 42.819 30.158 98.116 
212 21.899 92.529 63.040 38.637 63.725 44.404 
213 100.00 14.418 84.503 54.684 28.229 67.417 
214 92.614 73.220 48.118 56.357 55.156 26.998 
215 17.063 71.069 91.262 32.935 40.134 83.006 
216 0.0000 43.857 14.117 7.0339 12.562 4.5668 
217 35.610 81.957 100.00 45.696 55.478 102.85 
218 26.973 59.600 68.629 22.190 27.533 45.172 
219 100.00 51.466 39.252 52.180 39.098 17.622 
220 68.642 61.753 0.0000 30.528 34.058 5.8260 
221 100.00 64.990 0.0000 55.282 48.952 7.3971 
222 52.871 84.494 100.00 52.911 61.577 103.65 
223 44.128 41.929 68.526 20.516 17.892 43.266 
224 10.563 26.576 89.167 17.258 10.806 74.275 
225 51.408 0.0000 14.904 10.627 5.9238 3.2597 
226 32.496 55.809 25.508 15.089 22.437 9.3555 
227 44.902 91.051 32.888 38.135 62.441 19.183 
228 31.612 0.0000 15.761 4.7090 2.8682 3.1701 
229 17.824 100.00 34.686 39.259 73.068 22.136 
230 59.183 22.898 8.4366 15.277 10.597 2.8282 
231 69.608 100.00 16.231 54.873 81.276 15.771 
232 32.189 100.00 100.00 57.728 80.728 107.09 
233 53.797 0.0000 38.362 13.418 7.1513 12.933 
234 100.00 84.458 71.896 74.480 73.748 55.720 
235 91.893 59.838 15.294 46.275 40.941 8.2261 
236 0.0000 16.521 29.608 3.0987 3.1580 7.9874 
237 92.989 58.247 91.374 60.749 45.805 82.848 
238 83.319 0.0000 83.936 40.036 19.736 65.586 
239 63.463 24.621 56.548 22.465 14.084 28.603 
240 66.752 68.144 88.236 45.857 44.747 77.626 
241 47.136 31.979 34.011 13.342 11.551 11.258 
242 75.759 27.967 8.9114 25.222 16.812 3.5649 
243 40.233 43.570 0.0000 12.131 15.109 3.1371 
244 49.823 47.254 34.017 18.075 19.566 12.560 
245 69.055 100.00 42.678 56.876 82.040 27.980 
246 71.221 87.263 100.00 63.880 69.941 104.69 
247 100.00 19.551 16.614 43.374 24.466 5.5012 
248 27.771 31.724 0.0000 6.4650 8.1302 2.0885 
249 20.701 91.359 45.585 34.418 60.670 27.194 
250 0.0000 51.244 44.414 11.958 18.168 19.283 
251 84.350 84.539 0.0000 52.977 63.721 10.370 
252 22.605 21.390 40.130 6.4293 5.4987 14.117 
253 32.517 78.623 75.958 34.693 47.776 58.620 
254 34.482 39.425 91.650 24.203 18.039 79.936 
255 100.00 88.761 10.500 69.042 76.159 12.938 
256 15.287 0.0000 43.126 4.6127 2.5406 15.708 
257 59.456 13.650 22.661 15.089 9.0523 5.7483 
258 12.512 63.750 65.892 21.477 29.879 42.194 
259 44.197 33.410 56.349 15.897 12.903 28.520 
260 55.908 93.768 14.891 43.078 68.057 13.541 
261 89.299 10.653 60.394 38.754 20.380 33.030 
262 90.103 91.695 90.960 76.728 81.538 88.123 
263 0.0000 84.482 49.999 28.993 50.858 29.203 
264 61.559 7.2710 46.432 18.246 9.8456 18.896 
265 9.4946 93.287 89.452 45.494 67.211 84.198 
266 46.313 100.00 15.896 44.204 75.776 15.194 
267 34.056 55.779 51.455 18.559 23.848 25.824 
268 63.657 58.772 80.595 37.567 34.580 63.078 
269 73.869 46.684 38.232 30.318 25.568 15.517 
270 82.201 61.210 84.327 51.139 42.936 70.144 
271 20.369 24.153 11.395 4.3030 5.1762 2.7870 
272 48.502 41.830 22.183 15.076 15.849 6.9025 
273 81.117 83.409 45.079 52.977 62.295 26.142 
274 83.424 31.085 100.00 48.750 27.689 97.328 
275 83.131 16.507 50.902 32.676 18.094 23.476 
276 54.300 16.385 100.00 30.136 15.161 95.889 
277 100.00 10.622 49.198 45.914 24.309 22.499 
278 37.334 70.201 35.460 23.501 36.079 16.259 
279 64.189 0.0000 85.429 28.602 13.785 67.594 
280 0.0000 64.615 35.363 16.115 28.290 15.090 
281 0.0000 47.755 70.835 16.083 18.012 46.584 
282 48.118 96.221 56.661 46.503 72.022 38.636 
283 20.404 0.0000 84.968 14.761 6.6660 66.155 
284 50.234 90.368 75.911 47.559 65.654 61.324 
285 79.782 54.390 55.552 39.410 33.750 30.509 
286 91.240 91.868 73.604 72.320 80.081 59.451 
287 56.137 69.238 45.464 30.838 38.997 23.106 
288 27.711 90.067 27.764 32.594 58.605 16.326 
289 27.361 78.381 16.983 24.341 43.290 10.227 
290 74.877 47.418 24.642 29.900 25.831 8.9043 
291 16.100 62.836 0.0000 14.394 26.437 5.2046 
292 22.073 0.0000 57.231 7.7626 3.8932 28.108 
293 100.00 64.264 49.196 58.645 49.768 26.741 
294 83.487 41.461 53.595 37.659 26.919 27.386 
295 7.3871 23.706 72.271 11.482 7.8196 46.830 
296 12.530 81.831 56.554 29.082 48.284 34.862 
297 77.002 56.930 32.762 35.248 33.394 13.663 
298 55.617 8.0785 6.4665 12.369 7.2341 2.1092 
299 29.841 38.505 38.271 10.464 12.073 13.982 
300 53.041 16.258 74.543 20.945 11.407 50.250 
301 90.120 16.017 75.560 43.522 22.983 52.780 
302 15.802 24.908 60.111 9.3820 7.3146 31.744 
303 10.291 46.770 78.269 18.264 18.453 57.322 
304 71.540 78.499 18.373 41.194 52.074 11.389 
305 74.118 10.563 27.322 23.249 12.920 7.8135 
306 66.083 100.00 64.166 59.102 82.740 48.324 
307 10.500 41.344 32.939 8.0704 11.949 11.046 
308 49.795 48.552 100.00 34.645 26.836 97.906 
309 89.239 28.035 23.378 35.598 22.103 7.4322 
310 87.605 0.0000 34.027 32.943 17.274 11.339 
311 96.672 10.531 13.514 39.484 21.380 4.4404 
312 7.7967 10.405 16.057 2.0561 2.0590 3.2214 
313 0.0000 31.536 22.233 4.5942 7.0297 5.7684 
314 61.058 47.042 42.293 23.833 22.325 17.921 
315 56.309 18.900 45.896 16.552 10.215 18.637 
316 68.447 64.938 14.979 32.178 36.963 8.1322 
317 22.097 88.047 82.716 40.796 59.547 71.187 
318 85.241 82.702 100.00 70.346 68.876 104.14 
319 85.883 43.515 41.578 38.125 28.191 17.804 
320 71.240 35.894 17.927 24.253 18.497 5.6833 
321 74.904 93.929 71.933 61.491 76.783 57.040 
322 23.153 59.727 33.211 15.565 24.895 13.292 
323 34.345 0.0000 71.518 13.343 6.3928 45.417 
324 28.199 28.168 33.048 7.5174 7.5648 10.286 
325 2.5426 72.677 10.104 18.507 35.599 7.7107 
326 100.00 14.342 66.914 49.715 26.233 41.277 
327 52.000 75.507 72.675 37.999 46.943 53.549 
328 37.497 25.554 7.1970 7.7279 7.2473 2.4334 
329 100.00 81.555 41.283 66.693 67.709 23.725 
330 47.527 46.003 56.474 20.152 19.699 29.734 
331 12.353 22.293 47.823 6.4904 5.5677 19.810 
332 88.845 49.857 82.624 51.359 36.800 66.089 
333 58.410 90.050 52.443 45.416 64.837 33.221 
334 29.188 92.116 14.893 33.559 61.356 12.750 
335 73.971 39.987 84.226 38.503 25.912 67.351 
336 29.381 82.560 38.835 29.045 49.259 20.535 
337 68.150 52.301 57.709 31.815 28.682 32.121 
338 58.703 38.049 80.311 28.517 20.213 60.327 
339 77.863 80.330 31.889 47.261 56.704 17.087 
340 0.0000 18.764 47.135 5.4086 4.4274 19.088 
341 59.060 0.0000 56.621 18.576 9.4824 27.994 
342 46.068 58.508 66.369 26.110 28.962 42.365 
343 30.776 71.055 94.482 36.257 41.699 89.357 
344 74.234 19.838 78.286 33.284 18.170 56.504 
345 62.715 57.875 28.494 26.938 29.702 11.358 
346 77.209 74.565 56.751 47.066 51.270 34.691 
347 34.447 38.018 76.541 18.970 15.409 54.069 
348 24.714 62.752 45.428 18.592 28.186 21.636 
349 40.315 85.971 83.183 43.435 58.826 71.688 
350 88.349 74.293 22.653 50.696 53.418 12.434 
351 68.182 80.942 85.589 52.762 58.809 75.290 
352 9.1671 93.968 24.736 32.988 63.012 15.954 
353 25.790 7.4931 76.372 13.166 6.4928 52.401 
354 83.276 80.297 88.528 63.097 63.442 80.856 
355 57.567 33.764 5.7562 16.262 13.761 3.0951 
356 29.299 32.227 18.310 7.3531 8.6711 4.7770 
357 94.030 48.961 50.351 47.629 35.341 25.532 
358 78.833 66.870 45.484 42.303 43.200 23.328 
359 64.571 12.888 93.680 32.236 16.117 83.054 
360 58.978 35.808 64.828 24.007 17.618 38.396 
361 0.0000 52.316 85.350 21.843 22.709 69.537 
362 11.303 67.574 39.383 18.460 31.501 18.015 
363 30.721 85.258 0.0000 28.809 51.954 9.3709 
364 7.5737 73.423 64.477 25.586 39.087 42.034 
365 37.821 7.1083 34.236 7.7539 4.6048 10.334 
366 44.276 86.497 45.383 36.323 56.679 26.168 
367 16.508 38.142 13.905 6.5126 10.124 4.0810 
368 25.693 47.140 79.436 20.488 19.725 59.269 
369 27.457 9.2071 21.525 4.4948 3.1876 4.8037 
370 33.133 12.961 45.366 8.3061 5.2094 17.695 
371 52.062 9.3277 62.300 17.042 9.0297 34.127 
372 26.322 56.313 90.000 27.186 27.439 78.497 
373 90.698 8.8071 91.272 48.536 24.264 79.140 
374 68.752 44.168 66.016 31.409 24.482 40.783 
375 16.770 87.664 9.9285 28.423 54.107 10.735 
376 43.563 56.339 19.532 17.891 24.224 7.5600 
377 54.915 80.267 14.320 33.575 49.725 10.384 
378 57.412 91.198 65.860 48.525 67.327 47.959 
379 14.961 12.265 64.222 8.9027 5.0404 36.035 
380 63.117 87.771 40.917 44.374 62.170 23.582 
381 100.00 50.541 16.932 50.022 37.737 7.7896 
382 23.587 31.349 82.121 17.134 12.204 62.313 
383 86.161 30.586 49.409 36.560 22.906 22.900 
384 72.893 66.344 63.752 41.606 42.080 40.905 
385 89.167 0.0000 68.911 40.213 20.324 43.198 
386 15.079 0.0000 16.576 2.2265 1.5840 3.2424 
387 12.321 21.239 32.349 4.4119 4.5319 9.5046 
388 100.00 37.889 60.133 51.748 32.734 34.443 
389 27.449 87.318 93.550 44.897 60.497 90.700 
390 50.498 86.069 0.0000 35.132 56.003 9.8196 
391 15.818 15.967 84.958 15.009 7.9449 66.370 
392 22.347 71.383 55.820 24.097 36.935 32.196 
393 90.143 12.201 41.069 36.265 19.616 15.899 
394 54.159 68.493 82.962 38.216 41.262 68.202 
395 23.468 44.706 26.135 9.7859 14.257 8.2997 
396 87.377 6.7792 13.593 31.570 17.029 4.0328 
397 63.532 58.319 68.622 34.009 32.860 45.569 
398 23.144 48.142 9.9805 9.9487 15.957 4.3521 
399 13.100 36.703 43.829 8.4438 10.333 17.522 
400 53.341 79.625 39.727 34.551 49.424 20.850 
401 66.298 20.811 34.406 20.209 12.579 11.310 
402 76.802 51.520 74.144 40.686 32.410 52.688 
403 95.356 40.872 11.048 42.782 29.826 5.4623 
404 45.462 24.792 94.189 25.492 14.454 84.087 
405 80.300 87.801 19.227 52.775 66.757 13.847 
406 75.131 92.724 89.752 66.228 77.278 85.602 
407 36.225 59.454 9.2357 16.619 25.440 5.7268 
408 88.307 60.670 28.037 44.499 40.448 12.310 
409 47.819 8.7414 47.379 12.633 7.0339 19.407 
410 64.635 13.498 62.601 23.154 12.558 34.833 
411 53.660 31.177 48.297 17.540 13.279 21.108 
412 16.233 10.119 7.3166 2.3960 2.2431 1.7615 
413 38.369 58.863 39.184 19.058 26.097 16.813 
414 66.588 23.088 17.766 19.387 12.714 4.7818 
415 56.622 36.513 91.745 31.036 20.553 80.243 
416 52.682 28.640 74.968 22.477 14.499 51.383 
417 32.800 14.707 83.834 17.248 8.9859 64.539 
418 88.073 21.915 92.063 47.822 25.498 80.919 
419 29.181 26.348 91.967 20.603 12.364 79.635 
420 36.402 66.884 59.956 25.471 34.235 35.923 
421 13.484 78.079 44.487 24.885 43.015 23.453 
422 17.541 86.090 71.612 35.699 55.342 53.817 
423 9.4753 35.282 73.473 13.913 11.995 49.198 
424 29.303 65.988 79.934 28.536 34.600 62.504 
425 40.403 82.969 4.0965 29.802 50.281 9.2929 
426 53.138 58.724 90.339 35.923 33.331 79.805 
427 90.042 89.908 33.902 62.680 73.888 20.634 
428 23.445 30.514 49.122 9.1976 8.7843 21.371 
429 15.820 57.769 84.110 24.336 27.037 68.117 
430 77.407 10.661 40.397 26.714 14.560 14.974 
431 45.484 18.509 12.650 9.4047 6.8085 3.0500 
432 42.933 12.886 90.963 22.252 11.084 77.398 
433 30.870 85.830 51.596 33.310 54.356 31.064 
434 78.963 71.981 9.5449 41.987 47.163 8.6263 
435 55.361 53.937 18.099 21.328 24.682 7.0761 
436 87.317 71.882 35.895 49.744 50.886 17.983 
437 68.663 76.887 46.769 41.394 50.471 25.787 
438 8.1029 92.715 43.874 34.007 61.938 26.170 
439 59.016 71.841 23.326 31.142 41.391 11.372 
440 42.444 9.9711 70.956 15.756 8.1780 44.868 
441 11.221 77.644 77.714 31.594 45.275 60.945 
442 36.237 31.039 45.935 11.376 10.105 18.918 
443 33.557 49.341 62.595 18.373 20.164 36.546 
444 64.059 90.306 76.228 53.802 68.799 62.072 
445 45.480 37.148 84.871 24.481 17.658 67.598 
446 81.948 59.396 67.108 45.344 39.391 44.292 
447 71.281 91.905 53.065 53.629 71.015 34.558 
448 52.654 6.2338 86.895 23.957 11.603 69.985 
449 61.013 44.865 29.133 21.730 20.455 10.130 
450 90.404 49.696 23.649 41.772 33.027 9.3104 
451 89.988 76.177 60.790 58.155 58.222 39.751 
452 31.951 9.1431 60.255 10.456 5.6702 31.528 
453 49.022 98.037 86.022 55.925 78.079 79.597 
454 87.155 40.808 29.693 37.088 26.742 10.788 
455 12.151 33.408 99.191 22.334 14.766 94.509 
456 83.167 39.515 76.654 42.293 27.961 55.433 
457 9.6707 8.3110 92.857 16.761 7.7789 80.660 
458 21.379 56.317 55.862 17.217 23.366 29.982 
459 55.902 88.844 30.496 40.567 61.427 17.674 
460 54.156 50.026 67.673 26.406 24.500 43.132 
461 37.687 20.899 23.253 7.8496 6.3308 5.8058 
462 8.8887 83.455 92.956 39.993 54.247 88.598 
463 42.360 90.790 94.829 51.401 67.356 94.199 
464 13.069 37.243 86.024 18.387 14.504 69.307 
465 36.917 46.112 17.415 12.408 16.277 5.7479 
466 89.054 11.884 2.6493 32.895 18.135 2.8197 
467 31.034 36.594 59.774 13.752 12.714 32.188 
468 47.964 8.9945 23.145 10.074 6.0364 5.5947 
469 9.6436 29.635 7.0724 4.0250 6.3013 2.4322 
470 20.263 20.551 74.351 12.778 7.8444 49.714 
471 59.511 57.758 6.8688 24.253 28.373 5.6055 
472 9.5057 92.837 64.008 37.851 63.627 45.565 
473 40.522 90.493 12.866 35.070 60.424 12.087 
474 53.396 22.621 63.491 19.009 11.740 35.930 
475 94.974 50.164 71.830 53.428 38.378 49.909 
476 5.4658 92.370 9.6478 30.916 60.287 11.757 
477 95.825 33.009 32.704 42.773 27.036 12.009 
478 82.544 86.100 79.062 63.184 69.282 66.000 
479 90.867 25.800 11.540 35.996 21.863 4.3627 
480 33.513 92.413 74.574 43.569 65.811 59.605 
481 40.213 68.782 72.861 30.494 37.833 52.448 
482 61.650 42.648 12.462 20.450 18.996 4.7869 
483 6.9774 8.5712 34.115 3.2275 2.3691 10.075 
484 93.414 74.730 92.581 69.331 61.733 87.774 
485 23.569 45.042 91.362 23.463 19.883 79.785 
486 39.386 90.672 63.437 41.039 62.976 44.597 
487 57.005 53.734 53.367 25.890 26.473 27.705 
488 54.786 82.020 83.737 46.228 56.494 72.021 
489 10.243 25.305 17.933 3.7526 5.1013 4.1787 
490 4.8516 30.587 52.707 8.1408 8.1886 24.493 
491 8.5118 54.953 10.541 10.819 19.848 5.1407 
492 24.480 30.690 69.437 13.573 10.603 43.417 
493 11.102 56.972 26.355 12.559 21.784 9.6937 
494 75.918 71.320 93.928 54.959 51.568 89.186 
495 92.258 89.708 19.823 63.261 74.107 14.883 
496 14.407 71.886 12.715 18.838 35.143 8.0343 
497 88.343 64.168 57.700 50.131 45.137 34.324 
498 18.726 32.109 27.438 6.2670 8.0093 7.8085 
499 36.209 80.266 29.027 28.166 46.831 14.835 
500 72.124 37.231 48.994 28.258 20.636 22.547 
501 61.095 68.817 72.443 38.447 41.973 52.242 
502 26.730 98.019 89.281 51.021 75.402 85.175 
